X:1
T:Title
%%score { ( 1 3 ) | ( 2 4 ) }
L:1/8
Q:1/4=126
M:6/4
K:F
V:1 treble nm="Grand Piano"
V:3 treble 
V:2 bass 
V:4 bass 
V:1
 c4 d2 c4 A2 | .[EA]6 z6 | C4 F2 A4 c2 | c2 B2 A2 [EG]6 | c4 A2 F4 G2 | A4 [_Ec]2 [DB]4 D2 | %6
w: H.~L.~Gilmour * * *||||||
 [CF]4 [CG]2 [CA]4 [DB]2 | .A6 z6 | [GB]4 [FA]2 [EG]4 [Bd]2 | [CAc]4 [CGB]2 [CGB]4 [CFA]2 | %10
w: ||||
 [A,D]4 [G,^CE]2 [A,DF]4 [=CEG]2 | [CFA]4 [DFB]2 [CEG]6 | c4 d2 c4 A2 | A4 G2 F4 D2 | %14
w: ||||
 [CF]4 [Fd]2 [Fc]4 [CFA]2 | [B,EA]4 [B,EG]2 [A,CF]6 | [EG]4 [FA]2 [GB]4 [Bd]2 | %17
w: |||
 [CAc]4 [CGB]2 [CGB]2 A4 | c4 A2 F4 G2 | A2 B2 d2 [EG]6 | c4 d2 c4 A2 | A4 G2 F4 D2 | %22
w: |||||
 [CF]4 [Fd]2 [Fc]4 [CFA]2 |[M:10/4] [B,EA]4 [B,EG]2 [A,CF]6 z8 |] %24
w: ||
V:2
 [F,A,F]4 [F,B,F]2 [F,A,F]4 [F,CF]2 | .[C,C]4 [E,B,C]2 [F,A,C]4 [F,B,]2 | %2
 [F,A,]4 [F,A,C]2[K:treble] [F,CF]4 [A,CF]2 | [G,CE]4 [F,CF]2 [C,C]6 | %4
 [F,A,CF]4 [F,C]2 [F,A,C]4 [C,E,C]2 | [F,C]4 [A,,F,]2 [B,,F,]4 [B,,F,]2 | %6
 [A,,F,]4 [G,,E,]2 [F,,F,]4 [B,,F,]2 | .[C,F,C]4 [C,B,]2 [F,,F,]6 | [C,C]4 [C,C]2 [C,C]4 [C,C]2 | %9
 C,2 D,2 E,2 F,4 F,2 | F,4 E,2 D,4 C,2 | F,4 B,,2 C,6 | [F,A,F]4 [F,B,F]2 [F,A,F]4 [F,C]2 | %13
 [C,E,C]4 [C,E,B,]2 [D,F,A,]4 [B,,F,B,]2 | [A,,F,]4 [B,,F,]2 [C,A,]4 C,2 | C,4 C,2 F,,6 | %16
 [C,C]4 [C,C]2 [C,C]4 [C,C]2 | C,2 D,2 E,2 F,2[K:treble] [F,CF]4 | %18
 [F,A,F]4 [F,CF]2 [A,C]4 [G,CE]2 | .[F,F]6[K:bass] z6 | [F,A,F]4 [F,B,F]2 [F,A,F]4 [F,C]2 | %21
 [C,E,C]4 [C,E,B,]2 [D,F,A,]4 [B,,F,B,]2 | [A,,F,]4 [B,,F,]2 [C,A,]4 C,2 | %23
[M:10/4] C,4 C,2 F,,6 z8 |] %24
V:3
 x12 | z2 D,2 G2 F4 D2 | x12 | x12 | x12 | x12 | x12 | z2 F2 [EG]2 [A,CF]6 | x12 | x12 | x12 | %11
 x12 | x12 | x12 | x12 | x12 | x12 | x12 | x12 | x12 | x12 | x12 | x12 |[M:10/4] x20 |] %24
V:4
 x12 | x12 | x6[K:treble] x6 | x12 | x12 | x12 | x12 | x12 | x12 | x12 | x12 | x12 | x12 | x12 | %14
 x12 | x12 | x12 | x8[K:treble] x4 | x12 | C2 D2[K:bass] [F,B,F]2 [C,C]6 | x12 | x12 | x12 | %23
[M:10/4] x20 |] %24

